src/img/expand.svg

<svg fill="none" height="24" viewBox="0 0 24 24" width="24" xmlns="http://www.w3.org/2000/svg" xmlns:xlink="http://www.w3.org/1999/xlink"><mask id="a" height="20" maskUnits="userSpaceOnUse" width="20" x="2" y="2"><path clip-rule="evenodd" d="m22 9v-6c0-.1 0-.3-.1-.4-.1-.2-.3-.4-.5-.5-.1-.1-.3-.1-.4-.1h-6c-.6 0-1 .4-1 1s.4 1 1 1h3.6l-5.3 5.3c-.4.4-.4 1 0 1.4.2.2.4.3.7.3s.5-.1.7-.3l5.3-5.3v3.6c0 .6.4 1 1 1s1-.4 1-1zm-18 9.6 5.3-5.3c.4-.4 1-.4 1.4 0s.4 1 0 1.4l-5.3 5.3h3.6c.6 0 1 .4 1 1s-.4 1-1 1h-6c-.1 0-.3 0-.4-.1-.2-.1-.4-.3-.5-.5-.1-.1-.1-.3-.1-.4v-6c0-.6.4-1 1-1s1 .4 1 1z" fill="#fff" fill-rule="evenodd"/></mask><g mask="url(#a)"><path d="m0 0h24v24h-24z" fill="#6f6f6f"/></g></svg>

<svg width="24" height="24" viewBox="0 0 24 24" fill="none" 
  xmlns="http://www.w3.org/2000/svg">
  <mask id="mask0" mask-type="alpha" maskUnits="userSpaceOnUse" x="2" y="2" width="20" height="20">
    <path fill-rule="evenodd" clip-rule="evenodd" d="M22 9V3C22 2.9 22 2.7 21.9 2.6C21.8 2.4 21.6 2.2 21.4 2.1C21.3 2 21.1 2 21 2H15C14.4 2 14 2.4 14 3C14 3.6 14.4 4 15 4H18.6L13.3 9.3C12.9 9.7 12.9 10.3 13.3 10.7C13.5 10.9 13.7 11 14 11C14.3 11 14.5 10.9 14.7 10.7L20 5.4V9C20 9.6 20.4 10 21 10C21.6 10 22 9.6 22 9ZM4 18.6L9.3 13.3C9.7 12.9 10.3 12.9 10.7 13.3C11.1 13.7 11.1 14.3 10.7 14.7L5.4 20H9C9.6 20 10 20.4 10 21C10 21.6 9.6 22 9 22H3C2.9 22 2.7 22 2.6 21.9C2.4 21.8 2.2 21.6 2.1 21.4C2 21.3 2 21.1 2 21V15C2 14.4 2.4 14 3 14C3.6 14 4 14.4 4 15V18.6Z" fill="white"/>
  </mask>
  <g mask="url(#mask0)">
    <rect width="24" height="24" fill="#6F6F6F"/>
  </g>
</svg>
